!!!OTL: Wie sie so sanft ruhn.
!!!OTL-incipit: WIE SIE SO SANFT RUHN
!!!ARE: Europa, Mitteleuropa, Deutschland
!!!SCT: F1061
!!!TXL: @@DE
!!!YEM: Copyright 1995, estate of Helmut Schaffrath.
**kern	**text
*ICvox	*
*clefG2	*
*M3/4	*
*k[]	*
*C:	*
=1	=1
!LO:TX:a:t=P:only the highest voice encoded:problem	!
{4cc/	1._Wie
4dd/	ſie
4cc/	ſo
=2	=2
8cc/L	ſanft
8bJ	.
4b/	ruhn,
4r}	.
=3	=3
{4dd/	al-
4cc/	-le
4b/	die
=4	=4
8b/	Se-
8cc/	-li-
4cc/	-gen,
4r}	.
=5	=5
{4gg	ʒu
4ff	de-
4ee/	-ren
=6	=6
(>4ee/	Wohn-
4dd/)	.
4cc/}	-platʒ
=7	=7
{4dd/	jetʒt
8.ff/	mei-
16dd/	-ne
8.ee/	See-
16cc/	-le
=8	=8
(>4cc#/	ſchleicht;
4dd/)	.
4r}	.
=9	=9
{4dd/	wie
4dd/	ſie
4ee/	ſo
=10	=10
8.ee/L	ſanft
16ffJ	.
4ff/	ruhn
4r}	.
=11	=11
{(>4ff/	in
4ee/)	.
4dd/	den
=12	=12
8dd#/L	Grä-
8eeJ	.
4ee/	-bern,
4r}	.
=13	=13
{4a	tief
4aa	ʒur
4gg	Ver-
=14	=14
(>4gg/	-we-
4ff/)	.
8ee/}	-ſung
{8cc	hin-
=15	=15
16a/L	-ab-
16aaJ	.
16gg/L	-ge-
16ffJ	.
(>4ee/	-ſen-
4dd/)	.
=16	=16
2cc/	-ket.
4r}	.
==	==
!!!AGN: Trauer -, Bregraebnis -, Trost - Lied
!!!ONB: ESAC (Essen Associative Code) Database: FINK
!!!AMT: simple triple
!!!AIN: vox
!!!EED: Helmut Schaffrath
!!!EEV: 1.0
!!Text: A. C. Stockmann
!!!RDF**kern: > = above
!!!GTL: Trauer- Begraebniss- und Trostlieder
!!!URL-scan:
!!!ENC: Anna Maria Matuszewska
!!!EEV: 2024/08/09
*-	*-
